X:476
L:1/16
M:2/4
K:G
 (Bc) | d2b2 c2a2 | B2g2 gdBG | A2f2 fedc | B2g2 g2>d2B2>c2 | d2b2 c2a2 | B2g2 gdBG | A2f2 fdcA | 
 [GB]2[GB]2[GB]2 || G2(AB) (cd)(ef) | g2(Bc) d4 | e2(cd) c2(Bc) | d2(GA) B4 | G2(AB) (cd)(ef) | 
 g2(Bc) d4 | e2AB cBcA | [GB]2[GB]2[GB]2 ||[K:C] ef | gfga g2e2 | c2c2 cGEC | D2B2 BGFD | 
 C2c2 cGce | gfga g2e2 | c2c2 cGEC | D2B2 BGFD | [CE]2[CE]2[CE]2 ||

